X: 11214
Q: "Jig."
M: 6/8
L: 1/8
K: G
d/c/ |\
|: g |\
gdg gdg | gdg bag | =fcf fcf | =fcf agf |\
egg dgg | cgg Bgg | c>Bc A<dc | BGG G2 :|


